!!!COA:	Josquin des Prez
!!!CDT:	~1450-1521/08/27
!!!COM: Isaac
!!!OTL:	Helas que pourra
!!!AGN:	Chanson
!!!SCT:	NJE 27.14
!!!SCA:	New Josquin Edition 27.14
!!!voices:	3
**kern	**kern	**kern
*staff3	*staff2	*staff1
*Ivox	*Ivox	*Ivox
*I"Contra	*I"Tenor	*I"Superius
*I'C	*I'T	*I'S
*clefGv2	*clefGv2	*clefG2
*k[b-]	*k[b-]	*k[b-]
*M2/1	*M2/1	*M2/1
*met(C|)	*met(C|)	*met(C|)
=1-	=1-	=1-
1r	0r	0r
1c	.	.
=2	=2	=2
1.c	0r	0r
2B-\	.	.
=3	=3	=3
2A/	0r	0r
2B-\	.	.
1G	.	.
=4	=4	=4
2.F/	1r	0r
4G/	.	.
2.A/	1c	.
4B-\	.	.
=5	=5	=5
2.c\	1.c	0r
4d\	.	.
2e\	.	.
[2f\	2B-\	.
=6	=6	=6
2f\]	2A/	0r
4e\	2B-\	.
4d\	.	.
1e	1G	.
=7	=7	=7
1f	2.F/	1r
.	4G/	.
2r	2.A/	1cc
2F/	.	.
.	4B-\	.
=8	=8	=8
2.A/	2.c\	1.cc
4B-\	4d\	.
2c\	2e\	.
[2d\	[2f\	2b-\
=9	=9	=9
2d\]	2f\]	2a/
4c\	4e\	2b-\
4B-\	4d\	.
1c	1e	1g
=10	=10	=10
0F	1f	2.f/
.	.	4g/
.	2r	2.a/
.	2c\	.
.	.	4b-\
=11	=11	=11
2r	2.e\	2.cc\
1c	.	.
.	4f\	4dd\
.	2g\	2ee\
2A/	[2a\	[2ff\
=12	=12	=12
1d	2a\]	2ff\]
.	4g\	4ee\
.	4f\	4dd\
1c	1g	1ee
=13	=13	=13
2.F/	1.f	1ff
4G/	.	.
2A/	.	2r
[2B-\	2f\	[2ff\
=14	=14	=14
4B-\]	1f	4ff\]
4c\	.	4ee\
2d\	.	4dd\
.	.	4cc\
2c\	1g	2ee\
2G/	.	[2dd\
=15	=15	=15
1A	2e\	2dd\]
.	2f\	1cc
1G	1d	.
.	.	2bni\
=16	=16	=16
2A/	[0c	0cc
1F	.	.
4E/	.	.
4D/	.	.
=17	=17	=17
1C	0c]	0r
1r	.	.
=18	=18	=18
2.F/	2r	1cc
.	1f	.
4E/	.	.
2F/	.	2a/
2G/	2d\	2b-\
=19	=19	=19
2E/	2e\	2cc\
2D/	2f\	2.dd\
1G	2.g\	.
.	.	4cc\
.	.	4b-\
.	4f\	4a/
=20	=20	=20
2r	4e\	2b-\
.	4d\	.
2E/	2e\	2g/
2F/	2c\	2a/
2D/	2d\	2f/
=21	=21	=21
2G/	2B-\	2g/
2F/	2c\	2.a/
1D	2.d\	.
.	.	4g/
.	.	4f/
.	4c\	4e/
=22	=22	=22
2r	4B-\	2f/
.	4A/	.
2G/	2B-\	2d/
2E/	2G/	2g/
2C/	2c\	2e/
=23	=23	=23
2F/	2A/	2f/
2E/	2B-\	2.g/
1C	2.c\	.
.	.	4f/
.	.	4e/
.	4B-\	4d/
=24	=24	=24
2.c\	4A/	2e/
.	4G/	.
.	2A/	2c/
4B-\	.	.
4A/	2F/	2.cc\
4G/	.	.
2A/	[2f\	.
.	.	4b-\
=25	=25	=25
2F/	4f\]	4a/
.	4e\	4g/
2G/	4d\	2.b-\
.	4c\	.
1E-i	2.e-\	.
.	.	4a/
.	.	4g/
.	4d\	4f/
=26	=26	=26
2F/	4c\	2.a/
.	4B-\	.
1D	2.d\	.
.	.	4g/
.	.	4f/
.	4c\	4e/
2E/	4B-\	[2g/
.	4A/	.
=27	=27	=27
1C	2.c\	4g/]
.	.	4f/
.	.	4e/
.	4B-\	4d/
2r	4A/	2e/
.	4G/	.
[2F/	[2A/	[2c/
=28	=28	=28
4F/]	2A/]	2c/]
4E/	.	.
2D/	4G/	1f
.	4F/	.
1C	1G	.
.	.	2e/
=29	=29	=29
!	!	!LO:TX:Z=25:t=Fermata lacking in extant sources
1c	[0F	0f;
2r	.	.
2c\	.	.
=30	=30	=30
2.c\	1F]	2r
.	.	2cc\
4B-\	.	.
1A	2r	2.cc\
.	2f\	.
.	.	4b-\
=31	=31	=31
2r	2.f\	1a
2d\	.	.
.	4e\	.
2.d\	1d	2r
.	.	2dd\
4c\	.	.
=32	=32	=32
2.B-\	2r	2.dd\
.	2g\	.
4A/	.	4cc\
1G	2.g\	2.b-\
.	4f\	4a/
=33	=33	=33
2r	2.e\	1g
2c\	.	.
.	4d\	.
2.c\	1c	2r
.	.	2cc\
4B-\	.	.
=34	=34	=34
1A	2r	2.cc\
.	2f\	.
.	.	4b-\
2r	2.f\	1a
2d\	.	.
.	4e\	.
=35	=35	=35
2.d\	1d	2r
.	.	2dd\
4c\	.	.
2.B-\	2r	2.dd\
.	2g\	.
4A/	.	4cc\
=36	=36	=36
1G	2.g\	2.b-\
.	4f\	4a/
2r	2.e\	1g
2c\	.	.
.	4d\	.
=37	=37	=37
2.c\	1c	2r
.	.	1cc
4B-\	.	.
2A/	1f	.
2F/	.	2a/
=38	=38	=38
2G/	2d\	2b-\
2E/	2e\	2cc\
2D/	2f\	4dd\
.	.	4cc\
2G/	[2g\	4b-\
.	.	4a/
=39	=39	=39
2E/	4g\]	1g
.	4f\	.
2C/	4e\	.
.	4d\	.
1F	1c	2r
.	.	[2a/
=40	=40	=40
1D	1d	2a/]
.	.	2f/
2r	2B-\	2g/
2A/	2c\	2a/
=41	=41	=41
1G	2d\	4b-\
.	.	4a/
.	2.e\	4g/
.	.	4f/
1c	.	1e
.	4d\	.
.	4c\	.
.	4B-\	.
=42	=42	=42
2.F/	4A/	4f/
.	4B-\	4g/
.	4c\	4a/
4E/	4d\	4b-\
2C/	4e\	4cc\
.	4f\	4dd\
[2G/	[2d\	[2b-\
=43	=43	=43
2G/]	2d\]	2b-\]
2A/	2c\	1a
1E	1B-	.
.	.	2g/
=44	=44	=44
2r	0A	1a
2.A/	.	.
.	.	2r
4G/	.	.
4F/	.	[2a/
4E/	.	.
=45	=45	=45
1F	2r	4a/]
.	.	4g/
.	2.d\	4f/
.	.	4e/
1D	.	1f
.	4c\	.
.	4B-\	.
.	4A/	.
=46	=46	=46
2r	1G	1d
2.G/	.	.
.	1G	2r
4F/	.	.
4E/	.	[2g/
4D/	.	.
=47	=47	=47
1E	2r	4g/]
.	.	4f/
.	2.c\	4e/
.	.	4d/
1C	.	1e
.	4B-\	.
.	4A/	.
.	4G/	.
=48	=48	=48
2r	1A	1c
2.c\	.	.
.	1F	2r
4B-\	.	.
4A/	.	[2cc\
4G/	.	.
=49	=49	=49
1A	2r	4cc\]
.	.	4b-\
.	2.f\	4a/
.	.	4g/
1F	.	1a
.	4e\	.
.	4d\	.
.	4c\	.
=50	=50	=50
1D	2.d\	1f
.	4c\	.
2G/	2B-\	2d/
2E/	2G/	2g/
=51	=51	=51
2A/	2c\	2e/
2F/	2A/	2a/
2B-\	2d\	2f/
2G/	2B-\	2b-\
=52	=52	=52
2c\	2e-\	2g/
2A/	2c\	2cc\
2d\	1f	2a/
2B-\	.	[2dd\
=53	=53	=53
2c\	2eni\	2dd\]
2A/	2c\	1cc
1G	1d	.
.	.	2b-\
=54	=54	=54
1A	1c	2cc\
.	.	4b-\
.	.	4a/
1G	1d	4b-\
.	.	4a/
.	.	4g/
.	.	4f/
=55	=55	=55
2r	0c	2e/
2C/	.	2.c/
1F	.	.
.	.	4d/
.	.	4e/
.	.	4f/
=56	=56	=56
1C	1.c	4g/
.	.	4a/
.	.	4b-\
.	.	4cc\
2r	.	2a/
2E/	2B-\	[2g/
=57	=57	=57
2F/	2A/	2g/]
2D/	2F/	1f
1C	1G	.
.	.	2e/
=58	=58	=58
2F/	2F/	2f/
2C/	2E/	1g
1D	1F	.
.	.	[2f/
=59	=59	=59
1C	1G	2f/]
.	.	2e/
1Fl	1Fl	1fl
==	==	==
*-	*-	*-
!!!RDF**kern: l=long note in original notation
!!!RDF**kern: i=editorial accidental
!!!RDF**kern: V=start of tuplet marker
!!!RDF**kern: Z=end of tuplet marker
!!!ENC:	Victoria Chang 2012/03/27
!!!END:	2012/03/27/
!!!EED:	Jesse Rodin
!!!EEV:	2012/03/28/
!!attribution-level@Jos: 6 (very doubtful)
!!!ONB:	Translated from MusicXML and edited on 2012/03/28/ by Craig Sapp
!!muse2ps: C^@{COA}?\n@{SCT}^i2I150v85,85,150Q16
